local/share/icons/dracula-icons-main/16/places/folder-mail-cloud.svg

<?xml version="1.0" encoding="UTF-8"?>
<svg xmlns="http://www.w3.org/2000/svg" xmlns:xlink="http://www.w3.org/1999/xlink" width="16" height="16" viewBox="0 0 16 16">
<path fill-rule="nonzero" fill="rgb(100%, 100%, 100%)" fill-opacity="1" d="M 7.597656 2 C 5.300781 2 3.210938 3.269531 2.214844 5.296875 C 0.949219 6.191406 0 7.492188 0 9.089844 L 0 9.09375 C 0 11.886719 2.449219 14 5.199219 14 L 5.203125 14 C 6.148438 14 7.035156 13.6875 7.847656 13.226562 C 8.34375 13.203125 8.816406 13.0625 9.292969 12.929688 C 9.792969 13.074219 10.277344 13.273438 10.796875 13.273438 L 10.800781 13.273438 C 13.550781 13.273438 16 11.160156 16 8.363281 C 16 5.84375 13.984375 3.964844 11.574219 3.601562 C 10.464844 2.636719 9.101562 2.003906 7.601562 2 Z M 7.601562 4 C 8.855469 4.003906 10.039062 4.539062 10.792969 5.457031 C 10.796875 5.457031 10.796875 5.457031 10.800781 5.457031 C 12.566406 5.457031 14 6.757812 14 8.363281 C 14 9.96875 12.566406 11.273438 10.800781 11.273438 C 10.273438 11.273438 9.753906 11.152344 9.292969 10.929688 C 8.761719 11.152344 8.183594 11.273438 7.601562 11.273438 C 7.507812 11.273438 7.417969 11.265625 7.328125 11.261719 C 6.742188 11.734375 5.984375 12 5.199219 12 C 3.433594 12 2 10.699219 2 9.09375 C 2 7.972656 2.707031 6.953125 3.816406 6.472656 C 4.363281 4.996094 5.886719 4 7.601562 4 Z M 7.601562 4 "/>
</svg>

<svg width="16" height="16" version="1.1" viewBox="0 0 16 16" xmlns="http://www.w3.org/2000/svg">
 <defs>
  <style id="current-color-scheme" type="text/css">.ColorScheme-Text { color:#FFFFFF; } .ColorScheme-Highlight { color:#5294e2; }</style>
 </defs>
 <path style="fill:currentColor" class="ColorScheme-Text" d="m7.5977 2c-2.298 0.0017291-4.388 1.2684-5.3848 3.2969-1.2627 0.89507-2.2112 2.1952-2.2129 3.791v0.0019532 0.0019531c2.1142e-7 2.7956 2.4493 4.9082 5.1992 4.9082h0.0019531 0.0019531c0.94394-0.0016 1.8325-0.3117 2.6445-0.77539 0.49661-0.02045 0.97065-0.16224 1.4473-0.29688 0.49684 0.14506 0.9831 0.34533 1.5039 0.3457h0.001953c2.7499 0 5.1992-2.1145 5.1992-4.9102 0-2.5209-2.016-4.3996-4.4238-4.7617-1.1119-0.96455-2.4738-1.5994-3.9727-1.6016h-0.0019531-0.0039063zm0.0019532 2a4 3.6364 0 0 1 3.1934 1.4551 3.2 2.9091 0 0 1 0.007812 0 3.2 2.9091 0 0 1 3.1992 2.9082 3.2 2.9091 0 0 1-3.1992 2.9102 3.2 2.9091 0 0 1-1.5098-0.3457 4 3.6364 0 0 1-1.6914 0.3457 4 3.6364 0 0 1-0.27344-0.013672 3.2 2.9091 0 0 1-2.127 0.74023 3.2 2.9091 0 0 1-3.1992-2.9082 3.2 2.9091 0 0 1 1.8145-2.6211 4 3.6364 0 0 1 3.7852-2.4707z"/>
</svg>
